app/images/gallery_badge.svg

<svg width="138" height="48" viewBox="0 0 138 48" fill="none" xmlns="http://www.w3.org/2000/svg">
<rect x="0.5" y="0.5" width="137" height="47" rx="7.5" fill="#F8F8F8" stroke="#6C717C"/>
<path d="M53.5937 35.1563L52.4531 31.9844H48.0859L46.9687 35.1563H45L49.2734 23.6875H51.3047L55.5781 35.1563H53.5937ZM51.9609 30.375L50.8906 27.2656C50.8125 27.0573 50.7031 26.7292 50.5625 26.2813C50.4271 25.8333 50.3333 25.5052 50.2812 25.2969C50.1406 25.9375 49.9349 26.638 49.6641 27.3984L48.6328 30.375H51.9609Z" fill="#2B2D33"/>
<path d="M61.0334 35.3125C59.9397 35.3125 59.0907 34.9193 58.4866 34.1328H58.3772C58.4501 34.862 58.4866 35.3047 58.4866 35.4609V39H56.6506V26.5156H58.135C58.1767 26.6771 58.2626 27.0625 58.3928 27.6719H58.4866C59.0595 26.7969 59.9189 26.3594 61.0647 26.3594C62.1428 26.3594 62.9814 26.75 63.5803 27.5312C64.1845 28.3125 64.4866 29.4089 64.4866 30.8203C64.4866 32.2318 64.1793 33.3333 63.5647 34.125C62.9553 34.9167 62.1116 35.3125 61.0334 35.3125ZM60.5881 27.8594C59.859 27.8594 59.3251 28.0729 58.9866 28.5C58.6532 28.9271 58.4866 29.6094 58.4866 30.5469V30.8203C58.4866 31.8724 58.6532 32.6354 58.9866 33.1094C59.3199 33.5781 59.8642 33.8125 60.6194 33.8125C61.2548 33.8125 61.7444 33.5521 62.0881 33.0313C62.4319 32.5104 62.6037 31.7682 62.6037 30.8047C62.6037 29.8359 62.4319 29.1042 62.0881 28.6094C61.7496 28.1094 61.2496 27.8594 60.5881 27.8594Z" fill="#2B2D33"/>
<path d="M70.7622 35.3125C69.6684 35.3125 68.8195 34.9193 68.2153 34.1328H68.1059C68.1789 34.862 68.2153 35.3047 68.2153 35.4609V39H66.3794V26.5156H67.8637C67.9054 26.6771 67.9914 27.0625 68.1216 27.6719H68.2153C68.7882 26.7969 69.6476 26.3594 70.7934 26.3594C71.8716 26.3594 72.7101 26.75 73.3091 27.5312C73.9132 28.3125 74.2153 29.4089 74.2153 30.8203C74.2153 32.2318 73.908 33.3333 73.2934 34.125C72.6841 34.9167 71.8403 35.3125 70.7622 35.3125ZM70.3169 27.8594C69.5877 27.8594 69.0539 28.0729 68.7153 28.5C68.382 28.9271 68.2153 29.6094 68.2153 30.5469V30.8203C68.2153 31.8724 68.382 32.6354 68.7153 33.1094C69.0486 33.5781 69.5929 33.8125 70.3481 33.8125C70.9835 33.8125 71.4731 33.5521 71.8169 33.0313C72.1606 32.5104 72.3325 31.7682 72.3325 30.8047C72.3325 29.8359 72.1606 29.1042 71.8169 28.6094C71.4783 28.1094 70.9783 27.8594 70.3169 27.8594Z" fill="#2B2D33"/>
<path d="M80.9753 28.9609H85.1784V34.6953C84.4909 34.9193 83.8295 35.0781 83.1941 35.1719C82.5639 35.2656 81.8816 35.3125 81.1472 35.3125C79.418 35.3125 78.0847 34.8021 77.1472 33.7813C76.2097 32.7552 75.7409 31.3099 75.7409 29.4453C75.7409 27.6068 76.2696 26.1693 77.3269 25.1328C78.3842 24.0911 79.8399 23.5703 81.6941 23.5703C82.8868 23.5703 84.017 23.7995 85.0847 24.2578L84.4284 25.8125C83.5014 25.3854 82.5743 25.1719 81.6472 25.1719C80.4284 25.1719 79.4649 25.5547 78.7566 26.3203C78.0482 27.0859 77.6941 28.1328 77.6941 29.4609C77.6941 30.8568 78.0118 31.9193 78.6472 32.6484C79.2878 33.3724 80.2071 33.7344 81.405 33.7344C82.0092 33.7344 82.655 33.6589 83.3425 33.5078V30.5625H80.9753V28.9609Z" fill="#2B2D33"/>
<path d="M92.8994 35.1563L92.5322 33.9531H92.4697C92.053 34.4792 91.6337 34.8385 91.2119 35.0313C90.79 35.2188 90.2483 35.3125 89.5869 35.3125C88.7379 35.3125 88.0738 35.0833 87.5947 34.625C87.1207 34.1667 86.8837 33.5182 86.8837 32.6797C86.8837 31.7891 87.2145 31.1172 87.8759 30.6641C88.5374 30.2109 89.5452 29.9635 90.8994 29.9219L92.3916 29.875V29.4141C92.3916 28.862 92.2613 28.4505 92.0009 28.1797C91.7457 27.9036 91.3473 27.7656 90.8056 27.7656C90.3629 27.7656 89.9384 27.8307 89.5322 27.9609C89.1259 28.0911 88.7353 28.2448 88.3603 28.4219L87.7666 27.1094C88.2353 26.8646 88.7483 26.6797 89.3056 26.5547C89.8629 26.4245 90.389 26.3594 90.8837 26.3594C91.9827 26.3594 92.8108 26.599 93.3681 27.0781C93.9306 27.5573 94.2119 28.3099 94.2119 29.3359V35.1563H92.8994ZM90.165 33.9063C90.8317 33.9063 91.3655 33.7214 91.7666 33.3516C92.1728 32.9766 92.3759 32.4531 92.3759 31.7812V31.0312L91.2666 31.0781C90.402 31.1094 89.7718 31.2552 89.3759 31.5156C88.9853 31.7708 88.79 32.1641 88.79 32.6953C88.79 33.0807 88.9046 33.3802 89.1337 33.5938C89.3629 33.8021 89.7067 33.9063 90.165 33.9063Z" fill="#2B2D33"/>
<path d="M98.3703 35.1563H96.5344V23H98.3703V35.1563Z" fill="#2B2D33"/>
<path d="M102.599 35.1563H100.763V23H102.599V35.1563Z" fill="#2B2D33"/>
<path d="M108.765 35.3125C107.422 35.3125 106.369 34.9219 105.609 34.1406C104.854 33.3542 104.476 32.2734 104.476 30.8984C104.476 29.487 104.828 28.3776 105.531 27.5703C106.234 26.763 107.2 26.3594 108.429 26.3594C109.57 26.3594 110.471 26.7057 111.132 27.3984C111.794 28.0911 112.125 29.0443 112.125 30.2578V31.25H106.367C106.393 32.0885 106.619 32.7344 107.047 33.1875C107.474 33.6354 108.075 33.8594 108.851 33.8594C109.362 33.8594 109.836 33.8125 110.273 33.7188C110.716 33.6198 111.19 33.4583 111.695 33.2344V34.7266C111.247 34.9401 110.794 35.0911 110.336 35.1797C109.877 35.2682 109.354 35.3125 108.765 35.3125ZM108.429 27.75C107.846 27.75 107.377 27.9349 107.023 28.3047C106.674 28.6745 106.466 29.2135 106.398 29.9219H110.32C110.31 29.2083 110.138 28.6693 109.804 28.3047C109.471 27.9349 109.013 27.75 108.429 27.75Z" fill="#2B2D33"/>
<path d="M118.353 26.3594C118.723 26.3594 119.028 26.3854 119.267 26.4375L119.088 28.1484C118.827 28.0859 118.557 28.0547 118.275 28.0547C117.541 28.0547 116.945 28.2943 116.486 28.7734C116.033 29.2526 115.807 29.875 115.807 30.6406V35.1563H113.971V26.5156H115.408L115.65 28.0391H115.744C116.031 27.5234 116.403 27.1146 116.861 26.8125C117.325 26.5104 117.822 26.3594 118.353 26.3594Z" fill="#2B2D33"/>
<path d="M119.324 26.5156H121.324L123.082 31.4141C123.348 32.112 123.525 32.7682 123.613 33.3828H123.676C123.723 33.0964 123.809 32.75 123.934 32.3438C124.059 31.9323 124.72 29.9896 125.918 26.5156H127.902L124.207 36.3047C123.535 38.1016 122.416 39 120.848 39C120.442 39 120.046 38.9557 119.66 38.8672V37.4141C119.936 37.4766 120.251 37.5078 120.606 37.5078C121.491 37.5078 122.113 36.9948 122.473 35.9688L122.793 35.1563L119.324 26.5156Z" fill="#2B2D33"/>
<path fill-rule="evenodd" clip-rule="evenodd" d="M21.8743 12C16.841 12 15 13.8407 15 18.873V29.6271C15 34.6593 16.841 36.5 21.8743 36.5H32.6224C37.6556 36.5 39.5 34.6593 39.5 29.6271V18.873C39.5 13.8407 37.659 12 32.6257 12H21.8743Z" fill="url(#paint0_linear_1_215)"/>
<path fill-rule="evenodd" clip-rule="evenodd" d="M25.6872 26.2095H26.6708L26.1774 25.0619L25.6872 26.2095ZM25.445 26.7878L25.1532 27.4556H24.4888L25.9017 24.2502H26.4759L27.883 27.4556H27.2009L26.9128 26.7878H25.445ZM36.1361 27.4532H36.7782V24.25H36.1361V27.4532ZM33.5803 26.0772H34.764V25.4931H33.5803V24.8366H35.2986V24.2524H32.9384V27.4554H35.3604V26.8711H33.5803V26.0772ZM31.0289 26.4556L30.3009 24.25H29.7697L29.0417 26.4556L28.3332 24.2518H27.6404L28.7585 27.4573H29.2971L30.0262 25.3517L30.7554 27.4573H31.2987L32.4138 24.2518H31.739L31.0289 26.4556ZM23.5086 26.086C23.5086 26.6075 23.2496 26.8861 22.7794 26.8861C22.3066 26.8861 22.0463 26.5994 22.0463 26.0638V24.2522H21.3955V26.086C21.3955 26.9881 21.8968 27.5054 22.7705 27.5054C23.6529 27.5054 24.1588 26.9782 24.1588 26.0592V24.2502H23.5086V26.086ZM19.8428 24.2502H20.4932V27.4575H19.8428V26.1549H18.3735V27.4575H17.7227V24.2502H18.3735V25.5439H19.8428V24.2502Z" fill="white"/>
<path fill-rule="evenodd" clip-rule="evenodd" d="M27.2513 20.1663C24.9995 20.1663 23.168 18.3346 23.168 16.083H23.7447C23.7447 18.0164 25.3179 19.5894 27.2513 19.5894C29.1847 19.5894 30.7579 18.0164 30.7579 16.083H31.3346C31.3346 18.3346 29.5029 20.1663 27.2513 20.1663Z" fill="white"/>
<path d="M46.414 12.365H47.458C47.566 11.825 48.025 11.519 48.682 11.519C49.33 11.519 49.762 11.861 49.762 12.401C49.762 12.914 49.42 13.292 48.682 13.292H47.863V14.228H48.772C49.483 14.228 49.996 14.507 49.996 15.155C49.996 15.758 49.528 16.145 48.772 16.145C47.98 16.145 47.521 15.758 47.413 15.236H46.351C46.468 16.406 47.413 17.108 48.772 17.108C50.149 17.108 51.085 16.316 51.085 15.173C51.085 14.237 50.383 13.787 49.96 13.679C50.401 13.526 50.851 13.049 50.851 12.329C50.851 11.285 49.996 10.556 48.691 10.556C47.548 10.556 46.531 11.177 46.414 12.365ZM54.7876 13.958V14.219H53.6716C52.5286 14.219 51.8266 14.759 51.8266 15.668C51.8266 16.568 52.5286 17.108 53.4196 17.108C54.0136 17.108 54.5176 16.883 54.8416 16.478V17H55.7956V13.976C55.7956 12.905 55.0486 12.302 53.9236 12.302C52.7986 12.302 52.1416 12.932 52.0066 13.679H52.9786C53.0776 13.391 53.3566 13.148 53.8876 13.148C54.4006 13.148 54.7876 13.418 54.7876 13.958ZM53.6446 16.271C53.1856 16.271 52.8616 16.046 52.8616 15.632C52.8616 15.218 53.2216 14.993 53.7436 14.993H54.7876V15.272C54.7876 15.893 54.2566 16.271 53.6446 16.271ZM60.1509 13.31V12.41H57.0009V17H58.0269V13.31H60.1509ZM63.4734 12.302C62.7444 12.302 62.2764 12.635 62.0514 13.004V12.41H61.0614V18.719H62.0874V16.487C62.3034 16.82 62.7714 17.108 63.4464 17.108C64.5354 17.108 65.5074 16.28 65.5074 14.705C65.5074 13.13 64.5444 12.302 63.4734 12.302ZM63.2754 16.199C62.5464 16.199 62.0604 15.623 62.0604 14.723V14.687C62.0604 13.787 62.5464 13.211 63.2754 13.211C63.9954 13.211 64.4724 13.814 64.4724 14.705C64.4724 15.605 63.9954 16.199 63.2754 16.199ZM69.3844 12.41L68.1784 15.695L66.9724 12.41H65.8654L67.6294 16.919L66.9184 18.719H68.0164L70.4914 12.41H69.3844ZM70.988 13.697H71.969C72.05 13.382 72.347 13.148 72.833 13.148C73.274 13.148 73.571 13.346 73.571 13.697C73.571 14.057 73.301 14.264 72.824 14.264H72.203V15.074H72.878C73.436 15.074 73.733 15.254 73.733 15.632C73.733 16.037 73.391 16.262 72.869 16.262C72.374 16.262 72.005 16.046 71.906 15.65H70.907C71.024 16.577 71.807 17.108 72.869 17.108C73.985 17.108 74.759 16.532 74.759 15.677C74.759 14.993 74.264 14.696 73.913 14.615C74.237 14.48 74.579 14.183 74.579 13.616C74.579 12.815 73.85 12.302 72.887 12.302C71.915 12.302 71.087 12.788 70.988 13.697ZM79.825 12.41H78.835L76.756 15.47V12.41H75.748V17H76.738L78.817 13.949V17H79.825V12.41ZM80.7053 13.31H82.1723V17H83.1983V13.31H84.6653V12.41H80.7053V13.31ZM89.395 15.002V14.579C89.395 13.193 88.576 12.302 87.316 12.302C86.02 12.302 85.111 13.22 85.111 14.714C85.111 16.199 86.02 17.108 87.379 17.108C88.63 17.108 89.224 16.343 89.341 15.758H88.333C88.261 15.965 87.946 16.253 87.397 16.253C86.659 16.253 86.164 15.713 86.164 15.02V15.002H89.395ZM87.307 13.157C87.946 13.157 88.342 13.562 88.369 14.228H86.173C86.236 13.58 86.659 13.157 87.307 13.157ZM92.3329 17H94.4839C95.5279 17 96.0949 16.433 96.0949 15.695C96.0949 15.065 95.6989 14.696 95.2669 14.579C95.5999 14.453 95.9059 14.129 95.9059 13.598C95.9059 12.932 95.4199 12.41 94.3939 12.41H92.3329V17ZM94.3579 15.038C94.8259 15.038 95.0689 15.245 95.0689 15.614C95.0689 15.983 94.8259 16.208 94.3579 16.208H93.3409V15.038H94.3579ZM94.2679 13.202C94.6819 13.202 94.8979 13.382 94.8979 13.724C94.8979 14.057 94.6729 14.264 94.2679 14.264H93.3409V13.202H94.2679Z" fill="#2B2D33"/>
<path fill-rule="evenodd" clip-rule="evenodd" d="M21.3458 11.1182C16.053 11.1182 14.1172 13.0537 14.1172 18.3453V29.6537C14.1172 34.9453 16.053 36.8809 21.3458 36.8809H32.6479C37.9404 36.8809 39.8799 34.9453 39.8799 29.6537V18.3453C39.8799 13.0537 37.944 11.1182 32.6513 11.1182H21.3458Z" fill="url(#paint1_linear_1_215)"/>
<path fill-rule="evenodd" clip-rule="evenodd" d="M25.3555 26.0605H26.3898L25.8709 24.8537L25.3555 26.0605ZM25.1008 26.6686L24.794 27.3708H24.0954L25.581 24.0002H26.1848L27.6645 27.3708H26.9472L26.6443 26.6686H25.1008ZM36.3429 27.3683H37.0181V24H36.3429V27.3683ZM33.6554 25.9213H34.9001V25.3072H33.6554V24.6168H35.4623V24.0025H32.9804V27.3706H35.5273V26.7562H33.6554V25.9213ZM30.9725 26.3193L30.207 24H29.6484L28.8828 26.3193L28.1378 24.0019H27.4094L28.5851 27.3726H29.1514L29.9182 25.1585L30.6849 27.3726H31.2562L32.4288 24.0019H31.7192L30.9725 26.3193ZM23.0646 25.9307C23.0646 26.479 22.7923 26.772 22.2978 26.772C21.8007 26.772 21.5269 26.4705 21.5269 25.9073V24.0023H20.8426V25.9307C20.8426 26.8792 21.3698 27.4232 22.2885 27.4232C23.2164 27.4232 23.7483 26.8689 23.7483 25.9025V24.0002H23.0646V25.9307ZM19.2099 24.0002H19.8938V27.3728H19.2099V26.0031H17.6648V27.3728H16.9805V24.0002H17.6648V25.3606H19.2099V24.0002Z" fill="white"/>
<path fill-rule="evenodd" clip-rule="evenodd" d="M26.9969 19.7059C24.6291 19.7059 22.7031 17.7797 22.7031 15.4121H23.3096C23.3096 17.4451 24.9639 19.0992 26.9969 19.0992C29.0299 19.0992 30.6842 17.4451 30.6842 15.4121H31.2907C31.2907 17.7797 29.3645 19.7059 26.9969 19.7059Z" fill="white"/>
<defs>
<linearGradient id="paint0_linear_1_215" x1="27.25" y1="12" x2="27.25" y2="36.5" gradientUnits="userSpaceOnUse">
<stop stop-color="#2B2D33"/>
<stop offset="1" stop-color="#2B2D33"/>
</linearGradient>
<linearGradient id="paint1_linear_1_215" x1="26.9985" y1="11.1182" x2="26.9985" y2="36.8809" gradientUnits="userSpaceOnUse">
<stop stop-color="#FB6361"/>
<stop offset="1" stop-color="#ED3E45"/>
</linearGradient>
</defs>
</svg>

<svg width="138" height="48" fill="none" xmlns="http://www.w3.org/2000/svg"><rect x=".5" y=".5" width="137" height="47" rx="7.5" fill="#F8F8F8" stroke="#6C717C"/><path d="M53.594 35.156l-1.14-3.172h-4.368l-1.117 3.172H45l4.273-11.468h2.032l4.273 11.468h-1.984zm-1.633-4.781l-1.07-3.11a23.703 23.703 0 01-.61-1.969c-.14.642-.346 1.342-.617 2.102l-1.031 2.977h3.328zm9.072 4.938c-1.093 0-1.942-.394-2.546-1.18h-.11c.073.729.11 1.172.11 1.328V39H56.65V26.516h1.484c.042.161.128.547.258 1.156h.094c.572-.875 1.432-1.313 2.578-1.313 1.078 0 1.916.391 2.515 1.172.605.782.907 1.878.907 3.29 0 1.41-.308 2.512-.922 3.304-.61.792-1.453 1.188-2.532 1.188zm-.445-7.454c-.729 0-1.263.214-1.601.641-.334.427-.5 1.11-.5 2.047v.273c0 1.052.166 1.815.5 2.29.333.468.877.703 1.632.703.636 0 1.125-.26 1.47-.782.343-.52.515-1.263.515-2.226 0-.97-.172-1.7-.516-2.196-.338-.5-.838-.75-1.5-.75zm10.174 7.454c-1.094 0-1.942-.394-2.547-1.18h-.11c.074.729.11 1.172.11 1.328V39H66.38V26.516h1.485c.041.161.127.547.258 1.156h.093c.573-.875 1.433-1.313 2.578-1.313 1.079 0 1.917.391 2.516 1.172.604.782.906 1.878.906 3.29 0 1.41-.307 2.512-.922 3.304-.609.792-1.453 1.188-2.53 1.188zm-.445-7.454c-.73 0-1.263.214-1.602.641-.333.427-.5 1.11-.5 2.047v.273c0 1.052.167 1.815.5 2.29.334.468.878.703 1.633.703.636 0 1.125-.26 1.469-.782.344-.52.516-1.263.516-2.226 0-.97-.172-1.7-.516-2.196-.339-.5-.839-.75-1.5-.75zm10.658 1.101h4.203v5.735a12.16 12.16 0 01-1.984.477c-.63.094-1.312.14-2.047.14-1.729 0-3.062-.51-4-1.53-.937-1.027-1.406-2.472-1.406-4.337 0-1.838.529-3.276 1.586-4.312 1.057-1.042 2.513-1.563 4.367-1.563 1.193 0 2.323.23 3.39.688l-.656 1.555c-.927-.428-1.854-.641-2.78-.641-1.22 0-2.183.383-2.891 1.148-.709.766-1.063 1.813-1.063 3.14 0 1.397.318 2.46.953 3.188.64.724 1.56 1.086 2.758 1.086a9.06 9.06 0 001.938-.226v-2.946h-2.368v-1.601zM92.9 35.156l-.368-1.203h-.062c-.417.526-.836.886-1.258 1.078-.422.188-.964.282-1.625.282-.85 0-1.513-.23-1.992-.688-.474-.458-.711-1.107-.711-1.945 0-.89.33-1.563.992-2.016.661-.453 1.67-.7 3.023-.742l1.493-.047v-.46c0-.553-.13-.964-.391-1.235-.255-.276-.654-.414-1.195-.414-.443 0-.868.065-1.274.195s-.797.284-1.172.46l-.593-1.312c.468-.244.981-.43 1.539-.554a6.949 6.949 0 011.578-.196c1.099 0 1.927.24 2.484.72.563.478.844 1.23.844 2.257v5.82h-1.313zm-2.735-1.25c.667 0 1.2-.185 1.602-.554.406-.375.609-.899.609-1.57v-.75l-1.11.046c-.864.031-1.494.177-1.89.438-.39.255-.586.648-.586 1.18 0 .385.115.684.344.898.229.208.573.312 1.031.312zm8.205 1.25h-1.836V23h1.836v12.156zm4.229 0h-1.836V23h1.836v12.156zm6.166.157c-1.343 0-2.396-.391-3.156-1.172-.755-.787-1.133-1.868-1.133-3.243 0-1.411.352-2.52 1.055-3.328.703-.807 1.669-1.21 2.898-1.21 1.141 0 2.042.346 2.703 1.038.662.693.993 1.646.993 2.86v.992h-5.758c.026.839.252 1.484.68 1.938.427.447 1.028.671 1.804.671a6.83 6.83 0 001.422-.14c.443-.1.917-.26 1.422-.485v1.493a5.645 5.645 0 01-1.359.453 8.348 8.348 0 01-1.571.133zm-.336-7.563c-.583 0-1.052.185-1.406.555-.349.37-.557.909-.625 1.617h3.922c-.01-.714-.182-1.253-.516-1.617-.333-.37-.791-.555-1.375-.555zm9.924-1.39c.37 0 .675.025.914.078l-.179 1.71a3.473 3.473 0 00-.813-.093c-.734 0-1.33.24-1.789.718-.453.48-.679 1.102-.679 1.868v4.515h-1.836v-8.64h1.437l.242 1.523h.094a3.444 3.444 0 011.117-1.227 2.684 2.684 0 011.492-.453zm.971.156h2l1.758 4.898c.266.698.443 1.354.531 1.969h.063c.047-.287.133-.633.258-1.04.125-.41.786-2.353 1.984-5.827h1.984l-3.695 9.789c-.672 1.797-1.791 2.695-3.359 2.695a5.27 5.27 0 01-1.188-.133v-1.453c.276.063.591.094.946.094.885 0 1.507-.513 1.867-1.54l.32-.812-3.469-8.64z" fill="#2B2D33"/><path fill-rule="evenodd" clip-rule="evenodd" d="M21.874 12C16.841 12 15 13.84 15 18.873v10.754c0 5.032 1.841 6.873 6.874 6.873h10.748c5.034 0 6.878-1.84 6.878-6.873V18.873c0-5.032-1.841-6.873-6.874-6.873H21.874z" fill="url(#paint0_linear_1_215)"/><path fill-rule="evenodd" clip-rule="evenodd" d="M25.687 26.21h.984l-.494-1.148-.49 1.147zm-.242.578l-.292.668h-.664l1.413-3.206h.574l1.407 3.206h-.682l-.288-.668h-1.468zm10.691.665h.642V24.25h-.642v3.203zm-2.556-1.376h1.184v-.584H33.58v-.656h1.72v-.585h-2.36v3.203h2.421v-.584h-1.78v-.794zm-2.551.379L30.3 24.25h-.531l-.728 2.206-.709-2.204h-.693l1.119 3.205h.538l.73-2.105.728 2.105h.544l1.115-3.205h-.675l-.71 2.204zm-7.52-.37c0 .522-.26.8-.73.8-.472 0-.733-.287-.733-.822v-1.812h-.65v1.834c0 .902.5 1.42 1.374 1.42.883 0 1.389-.528 1.389-1.447V24.25h-.65v1.836zm-3.666-1.836h.65v3.207h-.65v-1.302h-1.47v1.302h-.65V24.25h.65v1.294h1.47V24.25zm7.408-4.084a4.088 4.088 0 01-4.083-4.083h.577a3.51 3.51 0 003.506 3.506 3.51 3.51 0 003.507-3.506h.577a4.088 4.088 0 01-4.084 4.083z" fill="#fff"/><path d="M46.414 12.365h1.044c.108-.54.567-.846 1.224-.846.648 0 1.08.342 1.08.882 0 .513-.342.891-1.08.891h-.819v.936h.909c.711 0 1.224.279 1.224.927 0 .603-.468.99-1.224.99-.792 0-1.251-.387-1.359-.909h-1.062c.117 1.17 1.062 1.872 2.421 1.872 1.377 0 2.313-.792 2.313-1.935 0-.936-.702-1.386-1.125-1.494.441-.153.891-.63.891-1.35 0-1.044-.855-1.773-2.16-1.773-1.143 0-2.16.621-2.277 1.809zm8.374 1.593v.261h-1.116c-1.143 0-1.845.54-1.845 1.449 0 .9.702 1.44 1.593 1.44.594 0 1.098-.225 1.422-.63V17h.954v-3.024c0-1.071-.747-1.674-1.872-1.674s-1.782.63-1.917 1.377h.972c.099-.288.378-.531.909-.531.513 0 .9.27.9.81zm-1.143 2.313c-.46 0-.783-.225-.783-.639 0-.414.36-.639.882-.639h1.044v.279c0 .621-.531.999-1.143.999zm6.506-2.961v-.9H57V17h1.026v-3.69h2.124zm3.322-1.008c-.729 0-1.197.333-1.422.702v-.594h-.99v6.309h1.026v-2.232c.216.333.684.621 1.36.621 1.088 0 2.06-.828 2.06-2.403 0-1.575-.963-2.403-2.034-2.403zm-.198 3.897c-.729 0-1.215-.576-1.215-1.476v-.036c0-.9.486-1.476 1.215-1.476.72 0 1.197.603 1.197 1.494 0 .9-.477 1.494-1.197 1.494zm6.11-3.789l-1.207 3.285-1.206-3.285h-1.107l1.764 4.509-.71 1.8h1.097l2.475-6.309h-1.107zm1.603 1.287h.981c.081-.315.378-.549.864-.549.441 0 .738.198.738.549 0 .36-.27.567-.747.567h-.621v.81h.675c.558 0 .855.18.855.558 0 .405-.342.63-.864.63-.495 0-.864-.216-.963-.612h-.999c.117.927.9 1.458 1.962 1.458 1.116 0 1.89-.576 1.89-1.431 0-.684-.495-.981-.846-1.062.324-.135.666-.432.666-.999 0-.801-.729-1.314-1.692-1.314-.972 0-1.8.486-1.899 1.395zm8.837-1.287h-.99l-2.079 3.06v-3.06h-1.008V17h.99l2.079-3.051V17h1.008v-4.59zm.88.9h1.467V17h1.026v-3.69h1.467v-.9h-3.96v.9zm8.69 1.692v-.423c0-1.386-.819-2.277-2.079-2.277-1.296 0-2.205.918-2.205 2.412 0 1.485.909 2.394 2.268 2.394 1.251 0 1.845-.765 1.962-1.35h-1.008c-.072.207-.387.495-.936.495-.738 0-1.233-.54-1.233-1.233v-.018h3.231zm-2.088-1.845c.639 0 1.035.405 1.062 1.071h-2.196c.063-.648.486-1.071 1.134-1.071zM92.333 17h2.15c1.045 0 1.612-.567 1.612-1.305 0-.63-.396-.999-.828-1.116.333-.126.639-.45.639-.981 0-.666-.486-1.188-1.512-1.188h-2.061V17zm2.025-1.962c.468 0 .71.207.71.576s-.242.594-.71.594H93.34v-1.17h1.017zm-.09-1.836c.414 0 .63.18.63.522 0 .333-.225.54-.63.54h-.927v-1.062h.927z" fill="#2B2D33"/><path fill-rule="evenodd" clip-rule="evenodd" d="M21.346 11.118c-5.293 0-7.229 1.936-7.229 7.227v11.309c0 5.291 1.936 7.227 7.229 7.227h11.302c5.292 0 7.232-1.936 7.232-7.227V18.345c0-5.291-1.936-7.227-7.229-7.227H21.346z" fill="url(#paint1_linear_1_215)"/><path fill-rule="evenodd" clip-rule="evenodd" d="M25.355 26.06h1.035l-.52-1.206-.515 1.207zm-.254.609l-.307.702h-.699L25.581 24h.604l1.48 3.37h-.718l-.303-.702h-1.543zm11.242.7h.675V24h-.675v3.368zm-2.688-1.448H34.9v-.614h-1.245v-.69h1.807v-.614H32.98v3.368h2.547v-.615h-1.872v-.835zm-2.683.398L30.207 24h-.559l-.765 2.32-.745-2.318h-.729l1.176 3.37h.566l.767-2.213.767 2.214h.571l1.173-3.371h-.71l-.747 2.317zm-7.907-.388c0 .548-.273.841-.767.841-.497 0-.771-.301-.771-.865v-1.905h-.684v1.929c0 .948.527 1.492 1.445 1.492.928 0 1.46-.554 1.46-1.52V24h-.683v1.93zM19.21 24h.684v3.372h-.684v-1.37h-1.545v1.37h-.684V24h.684v1.36h1.545V24zm7.787-4.294a4.299 4.299 0 01-4.294-4.294h.607a3.692 3.692 0 003.687 3.687 3.692 3.692 0 003.687-3.687h.607a4.299 4.299 0 01-4.294 4.294z" fill="#fff"/><defs><linearGradient id="paint0_linear_1_215" x1="27.25" y1="12" x2="27.25" y2="36.5" gradientUnits="userSpaceOnUse"><stop stop-color="#2B2D33"/><stop offset="1" stop-color="#2B2D33"/></linearGradient><linearGradient id="paint1_linear_1_215" x1="26.998" y1="11.118" x2="26.998" y2="36.881" gradientUnits="userSpaceOnUse"><stop stop-color="#FB6361"/><stop offset="1" stop-color="#ED3E45"/></linearGradient></defs></svg>
